X: 31358
T: Paddy O'Carroll
R: jig
M: 6/8
K: Gmajor
BGG ({B/}A)GG|BGG ({B/}A)GG|GBd gdB|Ad^c =cBA|
BGG ({B/}A)GG|BGG ({B/}A)GG|GBd gdc|B>cA G2:|
bg({a/g/f/}g) af({g/f/^e/}f)|gfe dcB|bg({a/g/f/}g) af({g/f/^e/}f)|ge^c' d'2 d'/=c'/|
bgg aff|gfe dcB|GBd gdc|B>cA G2:|

